X:1
L:1/8
Q:1/8=180
M:4/4
K:D
""^reel"" dB | AFAd BGAF | DFAF EDEG | FDEF GABd | cABc dcdB | AFAd BGAF | DFAF EDEG | FDEF GABd | 
 cABc defg || a2 fd fafd | gfed cdef | g2 gf gbag | fdec defg | a2 fd fafd | gfed cdef | 
 g2 gf gbag | fdec dcdB ||
